X:1
T:Title
%%score { 1 | 2 }
L:1/8
Q:1/4=100
M:2/4
K:D
V:1 treble nm="Grand Piano"
V:2 bass 
V:1
 D2 F2 | A3 [DFA] | B>c d>B | [FA]4 | B>d d>B | [FA]>F D>F | E2 E2 | [A,CE]4 | D2 F2 | A3 [DFA] | %10
w: Geo.~J.~Meyer *||||||||||
 B>c d>B | [FA]4 | B>d d>B | A>d d>d | e2 [Ec]2 | [Fd]4 | [ce]>[Bd] [Ac]>[GB] | [FA]2 [EG]2 | %18
w: ||||||||
 [DF]>[EG] [FA]>[GB] | [FA]4 | B>d d>B | [FA]2 F2 | F>F E>D | [A,CE]4 | D>E F>G | A2 A2 | B>c d>e | %27
w: |||||||||
 [^Af]4 | B>e d>B | A2 d2 | [Fd]>[Fd] [Ge]>[Ec] | [Fd]4 |] %32
w: |||||
V:2
 D,2 F,2 | A,3 D, | [G,DG]>[G,DG] [G,B,G]>[G,DG] | [D,D]4 | [G,DG]>[G,B,G] [G,B,G]>[G,DG] | %5
 [D,D]>[D,A,D] [D,F,]>[D,A,D] | [E,^G,D]2 [E,G,D]2 | A,,4 | D,2 F,2 | A,3 D, | %10
 [G,DG]>[G,DG] [G,B,G]>[G,DG] | [D,D]4 | [G,DG]>[G,B,G] [G,B,G]>[G,DG] | [A,F]>[A,F] [A,F]>[A,F] | %14
 [A,G]2[K:bass] [A,,A,]2 | [D,A,]4 | [A,,A,]>[A,,A,] [A,,A,]>[A,,A,] | [A,,A,]2 [A,,A,]2 | %18
 [D,A,]>[D,A,] [D,D]>[D,D] | [D,D]4 | [G,DG]>[G,B,G] [G,B,G]>[G,DG] | [D,D]2 [D,A,D]2 | %22
 [E,^G,D]>[E,G,D] [E,G,D]>[E,G,] | A,,4 | D,>E, F,>G, | A,2 A,2 | B,>[K:treble]C D>[B,B] | [F,F]4 | %28
 [G,DG]>[G,B,G] [G,B,G]>[G,DG] | [A,DF]2 [A,F]2 | [A,,A,]>[A,,A,] [A,,A,]>[A,,A,] | [D,A,]4 |] %32

